X: 283
T: Kolo Kalendara
O: Croatia
M: 2/4
L: 1/8
Z: Deborah Jones
Q: 1/4=120
K: A
|:"A" [c2A2] [Bd][Ac]                  |[c2A2] [Bd][Ac]       |\
  [c2A2] [Bd][Ac]                      |"E" [E3B3][EB]        :|
|:"A" [EA][EA] [E/A/][E/G/][E/A/][A/c/]|"E7" [Bd][Ac] [Bd][ce]|\
  "A" [Ac][Ac] [Bd][Ac]                |"E" [E3G3B3][EGB]     :|



